release/img/icons/fb.svg

<svg width="22" height="22" viewBox="0 0 22 22" fill="none" xmlns="http://www.w3.org/2000/svg">
<path d="M14.4758 12.4375L14.8906 9.72285H12.2968V7.96123C12.2968 7.21855 12.6591 6.49463 13.8208 6.49463H15V4.1834C15 4.1834 13.9299 4 12.9068 4C10.7707 4 9.37444 5.3002 9.37444 7.65391V9.72285H7V12.4375H9.37444V19H12.2968V12.4375H14.4758Z" fill="white"/>
</svg>

<svg width="22" height="22" fill="none" xmlns="http://www.w3.org/2000/svg"><path d="M14.476 12.438l.415-2.715h-2.594V7.96c0-.742.362-1.466 1.524-1.466H15V4.183S13.93 4 12.907 4C10.77 4 9.374 5.3 9.374 7.654v2.069H7v2.714h2.374V19h2.923v-6.563h2.179z" fill="#fff"/></svg>
